X:1
T:Title
%%score ( 1 2 ) ( 3 4 )
L:1/8
Q:1/4=100
M:4/4
K:Bb
V:1 treble nm="Grand Piano, Soprano"
V:2 treble 
V:3 bass nm="Choir Pad, Saved for Service, Newlin"
V:4 bass 
V:1
 [Fd]3 [Fd] [DF][DB][Ge][Fd] | [Fd]2 [Ec]2 [Ec]4 | [Ec]3 [Ec] [EF][EA][Dd][Dc] | %3
w: By~Roy~Gourley * * * * *|||
 [Dc]2 [DB]2 [DB]4 | [EB]3 [EB] [EB][EB][_DA][DG] | .G2 .B2 z4 | [Fd]4 [Ec]4 | [DB]6 z2 | %8
w: |||||
 [Fd]3 [Fd] [DF][DB][Ge][Fd] | [Fd]2 [Ec]2 [Ec]4 | [Ec]3 [Ec] [EF][EA][Fd][Ec] | %11
w: |||
 [Dc]2 [DB]2 [DB]4 | [Fd]3 [Fd] [Fd][Fd]GG | .c2 .c2 z4 | [Fd]4 [Ec]4 | B8- | B4 z4 |] %17
w: ||||||
V:2
 x8 | x8 | x8 | x8 | x8 | D-[DF]D-[Dc] [=E_d]4 | x8 | x8 | x8 | x8 | x8 | x8 | x8 | %13
 G-[G=B]G-[Gd] [Fe]4 | x8 | D2 EE D4- | D4 z4 |] %17
V:3
 [B,,B,]3 [B,,B,] [B,,B,][B,,F,][B,,F,][B,,B,] | [F,B,]2 [F,A,]2 [F,A,]4 | %2
 [F,A,]3 [F,A,] [F,A,][F,C][^F,A,][F,A,] | G,2 G,2 G,4 | [E,G,]3 [E,G,] [E,G,][E,G,][=E,B,][E,B,] | %5
 [F,B,]2 [F,B,]2 [^F,B,]4 | [F,A,]4 [F,A,]4 | [B,,B,]6 z2 | %8
 [B,,B,]3 [B,,B,] [B,,B,][B,,F,][B,,F,][B,,B,] | [F,B,]2 [F,A,]2 [F,A,]4 | %10
 [F,A,]3 [F,A,] [F,A,][F,A,][F,A,][F,A,] | [B,,B,]2 [B,,B,]2 [B,,B,]4 | %12
 [G,=B,]3 [G,B,] [G,B,][G,B,][F,B,][F,B,] | [E,C]3 [D,=B,] [C,C]4 | [F,B,]4 [F,A,]4 | %15
 B,2 G,^F, =F,4- | F,4 z4 |] %17
V:4
 x8 | x8 | x8 | x8 | x8 | x8 | x8 | x8 | x8 | x8 | x8 | x8 | x8 | x8 | x8 | B,,8- | B,,4 z4 |] %17

